X: 238
T: Kan nangua
L: 1/8
M: 2/4
K: Bb
d cB2 [I:setbarnb 1]| 
f cB2 | 
G f d f | 
d cB2 | 
G B c f | 
d cB2 | 
G D F G | 
D CB,2 | 
d c d f | 
d c B c | 
A GF2 | 
F F F G | 
A GB2 | 
G F F G | 
D CB,2 |]

@@@ Tune index: 9112
